assets/images/clarity_library-solid.svg

<svg width="32" height="32" viewBox="0 0 32 32" fill="none" xmlns="http://www.w3.org/2000/svg">
<path d="M11.3333 2.66667H4.66665C4.40226 2.64146 4.13844 2.72014 3.93105 2.88605C3.72366 3.05196 3.58899 3.29208 3.55554 3.55556V29.3333H12.4444V3.55556C12.411 3.29208 12.2763 3.05196 12.0689 2.88605C11.8615 2.72014 11.5977 2.64146 11.3333 2.66667V2.66667Z" fill="#3F3F40"/>
<path d="M30.0178 27.6355L23.8489 11.3689C23.8075 11.2597 23.7449 11.1598 23.6649 11.0748C23.5848 10.9898 23.4888 10.9214 23.3824 10.8736C23.2759 10.8257 23.161 10.7993 23.0443 10.7958C22.9276 10.7923 22.8114 10.8119 22.7022 10.8533L19.5556 12.08V7.99997C19.5556 7.76422 19.4619 7.53813 19.2952 7.37143C19.1285 7.20473 18.9024 7.11108 18.6667 7.11108H14.2222V29.3333H19.5556V13.0577L25.7156 29.3333L30.0178 27.6355Z" fill="#3F3F40"/>
</svg>

<svg width="32" height="32" fill="none" xmlns="http://www.w3.org/2000/svg"><path d="M11.333 2.667H4.667a1.022 1.022 0 00-1.111.889v25.777h8.888V3.556a1.022 1.022 0 00-1.11-.89zm18.685 24.969l-6.17-16.267a.89.89 0 00-1.146-.516l-3.146 1.227V8a.889.889 0 00-.89-.889h-4.444v22.222h5.334V13.058l6.16 16.275 4.302-1.697z" fill="#3F3F40"/></svg>
